X:1
T:Song 5 (Gibbons), LM
T:Song 5 (Gibbons), LM
T:Orlando Gibbons (1583-1625)
T:Public Domain Courtesy of the Cyber Hymnal™
C:Orlando Gibbons (1583-1625)
Z:Public Domain
Z:Courtesy of the Cyber Hymnal™
%%score ( 1 2 ) ( 3 4 )
L:1/8
M:3/4
K:G
V:1 treble 
V:2 treble 
V:3 bass 
V:4 bass 
V:1
 [EB]2 [EB]2 [EB]2 | [Ec]4 [DA]2 | [B,B]4 [B,G]2 | [B,F]6 | [B,F]2 [B,G]2 [DA]2 | [DB]4 E2 | %6
 A4 [B,^G]2 | [CA]6 [EB]2 [Ec]2 [DA]2 | [Dd]4 [B,G]2 | [DB]4 [EA]2 | [^DB]4 [DF]2 | %11
 ([^DF]2 [EG]2) [^CE]2 | [DA]4 D2 | G2 z2 x6 | E6 |] %15
V:2
 x6 | x6 | x6 | x6 | x6 | x4 E2 | (D2 C2) x2 | x12 | x6 | x6 | x6 | x6 | x4 D2 | E4 (F4 ^D2) | %14
 E6 |] %15
V:3
 [E,G,]2 [E,G,]2 [E,G,]2 | [A,,A,]4 [D,F,]2 | (F,2 E,2) E,2 | [B,,^D,]6 | [B,,^D,]2 E,2 [=D,F,]2 | %5
 [G,,G,]4 [C,G,]2 | ([D,=F,]2 E,2) E,2 | [A,,E,]6 [E,^G,]2 [A,,A,]2 [D,F,]2 | [B,,G,]4 [E,G,]2 | %9
 (G,2 F,2) [C,E,]2 | [B,,F,]4 [B,,B,]2 | ([B,,B,]2 [E,B,]2) A,2 | [F,A,]4 [G,B,]2 | %13
 [E,B,]2 [B,,B,]4 x4 | [E,G,]6 |] %15
V:4
 x6 | x6 | G,,4 (G,,A,,) | x6 | x2 E,2 x2 | x6 | x2 E,2 E,2 | x12 | x6 | D,4 x2 | x6 | x4 A,2 | %12
 x6 | x10 | x6 |] %15

